X:109
M:6/8
L:1/8
K:G
|:Bcd efg|ABc def|GAB cde|DEF G3::dBG ecA|fdf g3|ecA dBG|DEF G3:|

